X: 5340
T: Brustuens Avskjedsvals
R: waltz
M: 3/4
K: Gminor
GB d3e|d4B2|G2g3_a|g4e2|c2d2e2|d3c B2|A2d2A2|B2AB G2|
GB d3e|d4B2|G2g3_a|g4e2|c2d2e2|d2A2B2|c2B2A2|G6:|
|:G2B2d2|c2d2B2|G2A2 ^F2|D6|B3A Bc|d3c B2|d6|d6:|
G2B2d2|d4g2|g3f e2|c3d e2|d3c B2|A4e2|
d6|d6|G2B2d2|d4g2|g3f e2|c3d e2|
d3c B2|A2z2f2|d3c B2|A3G ^F2|G6|G6||

